X:556
T:Once a Night
S:Colin Hume's website,  colinhume.com  - chords can also be printed below the stave.
Q:3/8=120
M:6/8
C:Thompson, 1774
K:D
%%center To the tune of Ye Social Powers
P:A
|: "D"A2A A2G | "/"F2G A3 | "G"Bcd dcB | "A7"B3 A3 | "D"A2A A2G | "/"F2G A2A | "G"ABG "A7"FGE | "D"D3 D3 :|
P:B
|: "A"c2d e2A | "A7"c2d efg | "D"f2d d2d | "A"c2B A3 | "Bm"d2d c2B | "A"c2d e2e | "Bm"f2d "A7"cBc | "D"d3 d3 :|
P:A3
"D"A2A A2G | "/"F2G A3 | "G"Bcd dcB | "A7"B3 A3 | "D"A2A A2G | "/"F2G A2A | "G"ABG "A7"FGE | "D"D3 D3 |]

